X: 808
T: Rachel
B: jims roots
M:2/4
L:1/8
Q: 1/4=100
K:D
V:1 
%S:Christeson  Old Time Fiddler's Repertory, vol. 2
"D"D2FA dAFD | "G"GABd gdBd | "A"Ace^g aecA | "D"dfed "A"cBAF |
"D"D2Ac dAFD | "G"GABd gdBd | "A"Ace^g aecA | "D"dfed cBAF :|
|: "D"[f2d2D2][f2d2D2][g2d]-[g2d] | bafg a2cB | "A"Aceg fdec | defb a2- A2|
   "D"fAfa gegb | afdf a2cB | "A"Aceg fdec | "D"dBAF D2 A2 :|
% abcbook-tune_id 6298c279b70b9f1f20ad9767


% abcbook-boost 0
% abcbook-tablature 
% abcbook-transpose 
% abcbook-lastupdated 1654178426726
% abcbook-soundfonts 
% abcbook-repeats 1


